X:728
T:Nan of Cleve
C:Jill Lawrence, 1973.  Chords by Colin Hume, 2022.
L:1/8
M:6/8
R:Jig
S:Colin Hume's website,  colinhume.com  - chords can also be printed below the stave.
Q:3/8=112
K:G
P:A
|: B | "G"ded BcB | "/"G2G G2D | "Am"cde "G"d2G | "D"A6 |\
"C"E3 c2e | "G"d3 B2D | "D7"DEF A2F | "G"G3- G2 :|
P:B
|: G | "D7"ABc ABc | "G"Bcd Bcd | "G"gfe d2G | "D7"A3- A2A |\
"G"Bcd "Am"cde | "G"deg "D"f2e | "D7"dAB c2F | "G"G3-G2 :|

